!!!OTL: ES FIEL EIN REIF IN FRUEHLINGSNACHT
!!!ARE: Europa, Mitteleuropa, Deutschland, Nieder - Rhein ?
!!!SCT: E0192
!!!YEM: Copyright 1995, estate of Helmut Schaffrath.
**kern
*ICvox
*Ivox
*M6/8
*k[b-e-]
*g:
{8d
=1
4g
8b-
8a
8g
8fn
=2
4b-
8cc
8.dd
16cc}
{8dd
=3
4g
8b-
8a
8g
8fn
=4
4b-
8cc
4dd}
{8dd
=5
8.dd
16cc
8b-
8cc
8a
8dd
=6
4g
8g
4f#}
{8fn
=7
4b-
8cc
8dd
8cc
8b-
=8
8a
8b-
8a
4g}
==
!!!AGN: erzaehlendes Volks - Lied, Sage, Familien - Geschichte
!!!ONB: ESAC (Essen Associative Code) Database: ERK1
!!!AMT: compound duple
!!!AIN: vox
!!!EED: Helmut Schaffrath
!!!EEV: 1.0
*-
